assets/images/uifrommars-logo.svg

<svg width="140" height="39" viewBox="0 0 140 39" fill="none" xmlns="http://www.w3.org/2000/svg">
<g clip-path="url(#clip0_13_241)">
<path d="M47.6731 13.3485V5.71283H50.5335V13.1419C50.4922 13.7005 50.6315 14.2575 50.9307 14.731C51.2088 15.1283 51.6856 15.2872 52.361 15.2872C52.7055 15.2991 53.0484 15.2339 53.3645 15.0965C53.6807 14.959 53.9621 14.7527 54.1884 14.4926C54.6514 13.9059 54.8909 13.1737 54.8638 12.4268V5.6731H57.7242V17.3133H54.8638V15.605C54.5439 16.2004 54.0794 16.7059 53.513 17.0749C52.8897 17.4452 52.1715 17.6247 51.4472 17.5914C50.9207 17.6238 50.3936 17.537 49.9053 17.3375C49.4169 17.1381 48.9798 16.831 48.6265 16.4393C47.9909 15.7295 47.6731 14.6992 47.6731 13.3485Z" fill="black"/>
<path d="M61.1804 4.37008V1.82751H64.1202V4.37008H61.1804ZM61.2599 17.361V5.71287H64.1202V17.3531L61.2599 17.361Z" fill="black"/>
<path d="M67.4575 12.3155V10.0114H88.9501V12.3155H67.4575Z" fill="black"/>
<path d="M91.2146 7.90583V5.6811H93.5187V1.82751H99.2792V4.05226H96.3792V5.72081H99.0409V7.94556H96.3792V17.4007H93.5187V7.90583H91.2146Z" fill="black"/>
<path d="M101.425 17.3609V5.71277H107.956V7.93752H104.301V17.3529L101.425 17.3609Z" fill="black"/>
<path d="M109.648 11.521C109.639 10.6733 109.759 9.82921 110.006 9.01814C110.226 8.30256 110.591 7.63994 111.078 7.07149C111.539 6.52785 112.125 6.10506 112.787 5.83993C113.518 5.54307 114.301 5.39452 115.091 5.40293C115.88 5.39452 116.664 5.54307 117.395 5.83993C118.048 6.11994 118.631 6.54044 119.103 7.07149C119.591 7.63994 119.956 8.30256 120.176 9.01814C120.423 9.82921 120.543 10.6733 120.534 11.521C120.543 12.3686 120.423 13.2127 120.176 14.0238C119.956 14.7394 119.591 15.402 119.103 15.9705C118.643 16.5141 118.056 16.9369 117.395 17.202C116.663 17.4952 115.88 17.6436 115.091 17.639C114.301 17.6474 113.518 17.4989 112.787 17.202C112.134 16.922 111.55 16.5015 111.078 15.9705C110.591 15.402 110.226 14.7394 110.006 14.0238C109.778 13.2086 109.658 12.3672 109.648 11.521ZM112.628 13.2293C112.612 13.5377 112.669 13.8455 112.793 14.1282C112.917 14.4109 113.105 14.6609 113.343 14.8581C113.852 15.2529 114.487 15.4504 115.131 15.4143C115.772 15.4313 116.4 15.2358 116.918 14.8581C117.16 14.6643 117.351 14.4149 117.476 14.1313C117.6 13.8477 117.654 13.5383 117.634 13.2293V9.85242C117.654 9.5434 117.6 9.23392 117.476 8.95033C117.351 8.66674 117.16 8.41742 116.918 8.22359C116.4 7.84591 115.772 7.65035 115.131 7.6674C114.49 7.65035 113.861 7.84591 113.343 8.22359C113.105 8.42082 112.917 8.67074 112.793 8.95348C112.669 9.23623 112.612 9.54402 112.628 9.85242V13.2293Z" fill="black"/>
<path d="M123.513 17.3609V5.71279H126.373V7.38135C126.664 6.79072 127.102 6.28461 127.645 5.91143C128.224 5.54121 128.904 5.3607 129.591 5.39497C130.32 5.36845 131.04 5.56228 131.657 5.95116C132.231 6.3394 132.653 6.91523 132.849 7.57999C133.155 6.90578 133.654 6.33789 134.284 5.94873C134.914 5.55958 135.645 5.3668 136.385 5.39497C136.893 5.36644 137.402 5.45553 137.87 5.65535C138.339 5.85516 138.755 6.16031 139.086 6.54707C139.734 7.46124 140.056 8.56654 140 9.68555V17.3132H137.14V9.92392C137.14 8.49372 136.583 7.77863 135.511 7.77863H135.471C135.151 7.77575 134.834 7.8458 134.545 7.98346C134.256 8.12113 134.002 8.32279 133.802 8.57318C133.352 9.16449 133.127 9.89677 133.167 10.639V17.3927H130.306V9.92392C130.306 8.49372 129.75 7.77863 128.638 7.77863H128.598C128.278 7.77575 127.961 7.8458 127.672 7.98346C127.383 8.12113 127.129 8.32279 126.93 8.57318C126.496 9.17315 126.273 9.89923 126.294 10.639V17.3927H123.513V17.3609Z" fill="black"/>
<path d="M47.7922 35.874V24.2338H50.6526V25.9023C50.9437 25.3117 51.3814 24.8056 51.9239 24.4324C52.5033 24.0622 53.1838 23.8817 53.8706 23.916C54.5994 23.8894 55.3194 24.0833 55.9364 24.4722C56.5106 24.8604 56.9319 25.4362 57.1282 26.101C57.4339 25.4268 57.9334 24.8589 58.5631 24.4697C59.1928 24.0806 59.9242 23.8878 60.6639 23.916C61.1725 23.8874 61.6808 23.9765 62.1494 24.1763C62.6179 24.3762 63.034 24.6813 63.3654 25.0681C64.0132 25.9822 64.335 27.0875 64.2792 28.2065V35.8342H61.4188V28.4449C61.4188 27.0147 60.8626 26.2996 59.7899 26.2996H59.7502C59.43 26.2967 59.1134 26.3668 58.8243 26.5045C58.5352 26.6421 58.2812 26.8438 58.0816 27.0942C57.6312 27.6855 57.406 28.4178 57.4461 29.16V35.9137H54.5856V28.4449C54.5856 27.0147 54.0294 26.2996 52.9171 26.2996H52.8774C52.5572 26.2967 52.2405 26.3668 51.9514 26.5045C51.6623 26.6421 51.4083 26.8438 51.2088 27.0942C50.7755 27.6942 50.5521 28.4202 50.5732 29.16V35.9137H47.7922V35.874Z" fill="black"/>
<path d="M66.9809 32.5767C66.9702 32.1261 67.0529 31.6781 67.2239 31.261C67.3948 30.844 67.6503 30.4668 67.9741 30.1533C68.6097 29.4779 69.5631 29.0806 70.7947 28.9615L74.0127 28.6834V27.9285C74.0336 27.6885 74.0017 27.4467 73.9194 27.2203C73.837 26.9938 73.7062 26.7881 73.5359 26.6175C73.1503 26.3226 72.669 26.1811 72.1851 26.2203C71.6736 26.2067 71.1716 26.3601 70.755 26.6573C70.5701 26.8026 70.4229 26.9905 70.326 27.2049C70.2292 27.4193 70.1855 27.6539 70.1988 27.8888H67.3384C67.3381 27.3092 67.4742 26.7376 67.7357 26.2203C67.9914 25.7541 68.3436 25.3478 68.7686 25.0284C69.2364 24.6962 69.7617 24.4538 70.318 24.3133C70.9535 24.1486 71.608 24.0685 72.2646 24.075C73.452 24.0131 74.6221 24.3796 75.562 25.1079C75.9779 25.4801 76.3047 25.9412 76.5179 26.4571C76.7312 26.9729 76.8254 27.5302 76.7936 28.0875V33.8082H78.7402V36.033H74.251L74.2113 34.2452H74.0921C73.7853 34.8604 73.3188 35.3819 72.7414 35.7549C72.0821 36.1474 71.3231 36.3406 70.5564 36.3111C70.0523 36.3231 69.5513 36.2283 69.0864 36.033C68.6525 35.8672 68.2595 35.6098 67.9343 35.2781C67.6128 34.9513 67.3446 34.5759 67.1398 34.1658C67.0514 33.6402 66.9983 33.1093 66.9809 32.5767ZM69.9605 32.8945C69.9575 33.0583 70.0005 33.2197 70.0848 33.3601C70.1691 33.5006 70.2912 33.6146 70.4372 33.689C70.8198 33.8783 71.2419 33.9736 71.6687 33.9671C71.9929 33.9859 72.317 33.9273 72.614 33.796C72.9111 33.6648 73.1726 33.4647 73.377 33.2123C73.8079 32.6874 74.0338 32.0239 74.0127 31.3451V30.9081L70.596 31.2259C70.159 31.2657 69.9605 31.504 69.9605 31.9808V32.8945Z" fill="black"/>
<path d="M80.8059 35.8741V24.2339H87.3213V26.4586H83.6664V35.8741H80.8059Z" fill="black"/>
<path d="M88.8865 32.1794H91.7469C91.8661 33.3712 92.5812 33.9274 93.8525 33.9274C94.3353 33.9399 94.8135 33.8306 95.2429 33.6096C95.4319 33.5248 95.5903 33.3841 95.6969 33.2065C95.8034 33.029 95.853 32.823 95.8389 32.6164C95.8529 32.4347 95.8157 32.2528 95.7314 32.0912C95.6471 31.9297 95.5192 31.7951 95.3621 31.7027C94.9716 31.474 94.5395 31.3255 94.0909 31.2657L92.0647 30.8286C90.1181 30.3916 89.1249 29.2793 89.1249 27.4915C89.1219 27.0097 89.2306 26.5337 89.4427 26.1011C89.6527 25.673 89.9506 25.294 90.3168 24.9887C90.7482 24.6593 91.2315 24.4042 91.7469 24.2339C92.362 24.0329 93.007 23.9389 93.6538 23.9558C94.815 23.9067 95.96 24.2418 96.9115 24.9092C97.3464 25.2545 97.6949 25.6964 97.9293 26.1998C98.1638 26.7032 98.2778 27.2543 98.2623 27.8093H95.4018C95.4038 27.5798 95.359 27.3522 95.2702 27.1405C95.1814 26.9288 95.0506 26.7373 94.8854 26.5778C94.5399 26.2945 94.0998 26.1525 93.6538 26.1805C93.2345 26.1714 92.8211 26.2816 92.462 26.4983C92.3117 26.5978 92.1891 26.7339 92.1058 26.8937C92.0224 27.0535 91.9809 27.2319 91.9853 27.4121C91.973 27.5755 91.9989 27.7395 92.061 27.8912C92.123 28.0429 92.2195 28.1781 92.3428 28.2861C92.6076 28.4958 92.9226 28.6328 93.2566 28.6834L95.5608 29.1601C95.9884 29.232 96.4032 29.3658 96.7923 29.5574C97.1565 29.7124 97.4921 29.9273 97.7855 30.193C98.0756 30.4594 98.3059 30.7844 98.4609 31.1465C98.6309 31.5621 98.712 32.0086 98.6992 32.4575C98.6976 32.9515 98.5891 33.4394 98.3814 33.8877C98.1691 34.3481 97.8405 34.7452 97.428 35.0398C96.9748 35.3905 96.4639 35.6594 95.9183 35.8343C95.2491 36.0375 94.5516 36.1314 93.8525 36.1124C92.3031 36.1124 91.1112 35.7549 90.2372 35.0795C89.8053 34.7315 89.459 34.2892 89.2248 33.7864C88.9907 33.2836 88.875 32.7339 88.8865 32.1794Z" fill="black"/>
<path d="M101.266 30.8683V28.5244H140V30.8286H101.266V30.8683Z" fill="black"/>
<path d="M19.0692 38.1385C29.6009 38.1385 38.1385 29.6009 38.1385 19.0692C38.1385 8.53759 29.6009 0 19.0692 0C8.53759 0 0 8.53759 0 19.0692C0 29.6009 8.53759 38.1385 19.0692 38.1385Z" fill="#C6302C"/>
<path d="M19.0693 36.9466C28.9427 36.9466 36.9467 28.9426 36.9467 19.0692C36.9467 9.19576 28.9427 1.19177 19.0693 1.19177C9.19588 1.19177 1.19189 9.19576 1.19189 19.0692C1.19189 28.9426 9.19588 36.9466 19.0693 36.9466Z" fill="black"/>
<path d="M19.0651 12.534C18.9823 12.5272 18.8995 12.5465 18.8282 12.5893C18.7569 12.6321 18.7008 12.6961 18.6679 12.7724C18.4692 13.2094 19.0254 14.2026 19.0254 14.2423L19.0651 14.282L19.1049 14.2423C19.1446 14.2026 19.6611 13.2094 19.4624 12.7724C19.436 12.6915 19.3813 12.6229 19.3083 12.5791C19.2353 12.5353 19.149 12.5193 19.0651 12.534Z" fill="white"/>
<path d="M20.5948 11.6998L20.1577 11.0244C20.2284 10.5908 20.2683 10.1527 20.2769 9.71338C20.2792 9.15844 20.1851 8.60731 19.9989 8.08455V8.04482C19.9591 7.96536 19.9591 7.92564 19.9193 7.84618C19.7177 7.38484 19.4291 6.96669 19.0692 6.61462C18.6952 6.9651 18.3906 7.38291 18.1714 7.84618C18.1316 7.92564 18.1317 7.96536 18.0919 8.04482V8.08455C17.9057 8.60731 17.8116 9.15844 17.8139 9.71338C17.8048 10.1666 17.8447 10.6195 17.933 11.0641L17.496 11.6998C17.47 11.7558 17.4565 11.8168 17.4565 11.8785C17.4565 11.9403 17.47 12.0013 17.496 12.0573C17.5755 12.2957 18.0125 13.408 18.0125 13.408H18.0522C18.0627 13.408 18.0728 13.4039 18.0803 13.3964C18.0877 13.389 18.0919 13.3788 18.0919 13.3683C18.0919 13.3683 17.9728 12.2957 18.4098 12.1368H18.4892V12.1765C18.4892 12.2559 18.529 12.3354 18.6084 12.3354H19.5221C19.6015 12.3354 19.6413 12.2559 19.6413 12.1765V12.1368H19.7605C20.1975 12.2957 20.0783 13.3683 20.0783 13.3683C20.0783 13.3788 20.0825 13.389 20.09 13.3964C20.0974 13.4039 20.1074 13.408 20.118 13.408H20.1577C20.1577 13.408 20.5948 12.2957 20.6742 12.0573C20.6729 11.9339 20.6459 11.8121 20.5948 11.6998Z" fill="white"/>
<path d="M19.0692 36.9467C21.7178 36.949 24.3338 36.3616 26.7272 35.2271C29.1206 34.0926 31.2313 32.4395 32.9063 30.3876C31.7753 27.6483 29.8564 25.3063 27.3931 23.6584C24.9298 22.0105 22.0328 21.131 19.0692 21.1311C16.1048 21.1302 13.2069 22.0094 10.7428 23.6573C8.27875 25.3052 6.35933 27.6476 5.22803 30.3876C6.90359 32.4398 9.0151 34.0931 11.4092 35.2276C13.8033 36.3621 16.4199 36.9493 19.0692 36.9467Z" fill="#E74136"/>
<path d="M12.7527 35.7548C14.7622 36.5538 16.9068 36.9584 19.0693 36.9466C21.2269 36.9436 23.3663 36.5533 25.386 35.7945C21.6516 31.782 19.0693 22.8036 19.0693 15.454C19.0693 22.7639 16.4871 31.7423 12.7527 35.7548Z" fill="white"/>
</g>
<defs>
<clipPath id="clip0_13_241">
<rect width="140" height="38.1385" fill="white"/>
</clipPath>
</defs>
</svg>

<svg xmlns="http://www.w3.org/2000/svg" width="140" height="39" fill="none"><g clip-path="url(#a)"><path fill="#000" d="M47.673 13.348V5.713h2.86v7.429a2.614 2.614 0 0 0 .398 1.589c.278.397.755.556 1.43.556a2.317 2.317 0 0 0 1.827-.794 3.15 3.15 0 0 0 .676-2.066V5.673h2.86v11.64h-2.86v-1.708c-.32.595-.785 1.1-1.351 1.47a3.71 3.71 0 0 1-2.066.516 3.507 3.507 0 0 1-2.82-1.152c-.636-.71-.954-1.74-.954-3.09ZM61.18 4.37V1.828h2.94V4.37h-2.94Zm.08 12.991V5.713h2.86v11.64l-2.86.008ZM67.457 12.316V10.01H88.95v2.305H67.457ZM91.215 7.906V5.68h2.304V1.828h5.76v2.224h-2.9v1.669h2.662v2.225h-2.662V17.4h-2.86V7.906h-2.304ZM101.425 17.36V5.714h6.531v2.225h-3.655v9.415l-2.876.008ZM109.648 11.521a8.288 8.288 0 0 1 .358-2.503 5.457 5.457 0 0 1 1.072-1.947 4.37 4.37 0 0 1 1.709-1.231 5.954 5.954 0 0 1 2.304-.437 5.958 5.958 0 0 1 2.304.437c.653.28 1.236.7 1.708 1.231a5.444 5.444 0 0 1 1.073 1.947c.247.811.367 1.655.358 2.503a8.288 8.288 0 0 1-.358 2.503 5.445 5.445 0 0 1-1.073 1.947 4.368 4.368 0 0 1-1.708 1.231 6.103 6.103 0 0 1-2.304.437 5.954 5.954 0 0 1-2.304-.437 4.838 4.838 0 0 1-1.709-1.232 5.458 5.458 0 0 1-1.072-1.946 9.718 9.718 0 0 1-.358-2.503Zm2.98 1.708a1.983 1.983 0 0 0 .715 1.63 2.673 2.673 0 0 0 1.788.555 2.902 2.902 0 0 0 1.787-.556 1.925 1.925 0 0 0 .716-1.629V9.852a1.925 1.925 0 0 0-.716-1.629 2.901 2.901 0 0 0-1.787-.556 2.904 2.904 0 0 0-1.788.557 1.98 1.98 0 0 0-.715 1.628v3.377ZM123.513 17.36V5.714h2.86V7.38a3.847 3.847 0 0 1 1.272-1.47 3.306 3.306 0 0 1 1.946-.516 3.627 3.627 0 0 1 2.066.556c.574.388.996.964 1.192 1.629a3.727 3.727 0 0 1 3.536-2.185 3.312 3.312 0 0 1 2.701 1.152c.648.914.97 2.02.914 3.139v7.627h-2.86v-7.39c0-1.43-.557-2.144-1.629-2.144h-.04a2.11 2.11 0 0 0-1.669.794 3.133 3.133 0 0 0-.635 2.066v6.754h-2.861v-7.47c0-1.43-.556-2.144-1.668-2.144h-.04a2.11 2.11 0 0 0-1.668.794 3.361 3.361 0 0 0-.636 2.066v6.754h-2.781v-.032ZM47.792 35.874v-11.64h2.86v1.668a3.85 3.85 0 0 1 1.272-1.47 3.31 3.31 0 0 1 1.947-.516 3.626 3.626 0 0 1 2.065.556c.575.388.996.964 1.192 1.629a3.727 3.727 0 0 1 3.536-2.185 3.313 3.313 0 0 1 2.701 1.152c.648.914.97 2.02.914 3.138v7.628h-2.86v-7.39c0-1.43-.556-2.144-1.63-2.144h-.039a2.109 2.109 0 0 0-1.668.794 3.13 3.13 0 0 0-.636 2.066v6.754h-2.86v-7.47c0-1.43-.557-2.144-1.669-2.144h-.04a2.11 2.11 0 0 0-1.668.794 3.365 3.365 0 0 0-.636 2.066v6.754h-2.78v-.04ZM66.98 32.577a3.264 3.264 0 0 1 .994-2.424c.636-.675 1.59-1.072 2.82-1.191l3.219-.279v-.755a1.653 1.653 0 0 0-.477-1.31 1.963 1.963 0 0 0-1.35-.398 2.355 2.355 0 0 0-1.431.437 1.463 1.463 0 0 0-.556 1.232h-2.86c0-.58.135-1.151.397-1.669a3.742 3.742 0 0 1 1.033-1.192 4.637 4.637 0 0 1 1.549-.715 7.465 7.465 0 0 1 1.947-.238 4.962 4.962 0 0 1 3.297 1.033 3.714 3.714 0 0 1 1.232 2.98v5.72h1.946v2.225h-4.489l-.04-1.788h-.119a3.835 3.835 0 0 1-1.35 1.51 3.973 3.973 0 0 1-2.186.556 3.576 3.576 0 0 1-1.47-.278 3.226 3.226 0 0 1-1.152-.755 4.37 4.37 0 0 1-.794-1.112 11.93 11.93 0 0 1-.16-1.59Zm2.98.318a.873.873 0 0 0 .477.794c.383.19.805.285 1.232.278a2.045 2.045 0 0 0 1.708-.755c.43-.525.657-1.188.636-1.867v-.437l-3.417.318c-.437.04-.636.278-.636.755v.913ZM80.806 35.874v-11.64h6.515v2.225h-3.655v9.415h-2.86ZM88.886 32.18h2.86c.12 1.191.835 1.747 2.107 1.747.482.013.96-.096 1.39-.317a1.013 1.013 0 0 0 .596-.994.974.974 0 0 0-.477-.913 3.406 3.406 0 0 0-1.271-.437l-2.026-.437c-1.947-.437-2.94-1.55-2.94-3.338a3.114 3.114 0 0 1 .318-1.39c.21-.428.508-.807.874-1.112.431-.33.915-.585 1.43-.755a5.663 5.663 0 0 1 1.907-.278 5.284 5.284 0 0 1 3.258.953 3.575 3.575 0 0 1 1.35 2.9h-2.86a1.691 1.691 0 0 0-.517-1.231 1.768 1.768 0 0 0-1.231-.398c-.42-.009-.833.102-1.192.318a1.064 1.064 0 0 0-.477.914 1.055 1.055 0 0 0 .358.874c.265.21.58.347.914.397l2.304.477c.427.072.842.206 1.231.397.364.155.7.37.993.636.29.266.52.591.676.953.17.416.251.863.238 1.312-.001.494-.11.981-.318 1.43-.212.46-.54.857-.953 1.152-.453.35-.964.62-1.51.794a6.502 6.502 0 0 1-2.066.278c-1.549 0-2.74-.357-3.615-1.032a3.627 3.627 0 0 1-1.35-2.9ZM101.266 30.868v-2.344H140v2.305h-38.734v.04Z"/><path fill="#C6302C" d="M19.07 38.139c10.53 0 19.069-8.538 19.069-19.07C38.139 8.538 29.6 0 19.069 0 8.538 0 0 8.538 0 19.07 0 29.6 8.538 38.138 19.07 38.138Z"/><path fill="#000" d="M19.07 36.947c9.873 0 17.877-8.004 17.877-17.878 0-9.873-8.004-17.877-17.878-17.877-9.873 0-17.877 8.004-17.877 17.877 0 9.874 8.004 17.878 17.877 17.878Z"/><path fill="#fff" d="M19.065 12.534a.397.397 0 0 0-.397.238c-.199.437.357 1.43.357 1.47l.04.04.04-.04c.04-.04.556-1.033.357-1.47a.353.353 0 0 0-.397-.238Z"/><path fill="#fff" d="m20.595 11.7-.437-.676c.07-.433.11-.871.119-1.31a4.795 4.795 0 0 0-.278-1.63v-.04c-.04-.079-.04-.118-.08-.198a3.917 3.917 0 0 0-.85-1.231c-.374.35-.678.768-.898 1.231-.04.08-.04.12-.08.199v.04a4.795 4.795 0 0 0-.277 1.628c-.01.454.03.907.119 1.351l-.437.636a.424.424 0 0 0 0 .357c.08.239.517 1.351.517 1.351h.04a.04.04 0 0 0 .039-.04s-.12-1.072.318-1.231h.08v.04c0 .079.039.158.118.158h.914c.08 0 .12-.08.12-.159v-.04h.119c.437.16.317 1.232.317 1.232a.04.04 0 0 0 .04.04h.04s.437-1.112.516-1.35a.886.886 0 0 0-.08-.358Z"/><path fill="#E74136" d="M19.07 36.947a17.843 17.843 0 0 0 13.836-6.56 14.97 14.97 0 0 0-13.837-9.256 14.97 14.97 0 0 0-13.841 9.257 17.845 17.845 0 0 0 13.841 6.559Z"/><path fill="#fff" d="M12.753 35.755a16.847 16.847 0 0 0 6.316 1.192 18.032 18.032 0 0 0 6.317-1.153c-3.734-4.012-6.317-12.99-6.317-20.34 0 7.31-2.582 16.288-6.316 20.3Z"/></g><defs><clipPath id="a"><path fill="#fff" d="M0 0h140v38.139H0z"/></clipPath></defs></svg>
